!!!COM: Palestrina, Giovanni Perluigi da
!!!OPR: Missa Sanctorum meritis
!!!OMD: Credo
!!!OTL: Crucifixus
**kern	**kern	**kern
*Itenor	*Icalto	*Icant
!Tenor	!Altus	!Cantus
*clefGv2	*clefG2	*clefG2
*k[]	*k[]	*k[]
*E:phr	*E:phr	*E:phr
*M4/2	*M4/2	*M4/2
=100	=100	=100
0r	0r	1.g
.	.	2g
=101	=101	=101
0r	1r	2a
.	.	2g
.	[1c	2.cc
.	.	4b
=102	=102	=102
0r	2c]	2a
.	2c	2g
.	2d	2f
.	2c	2e
=103	=103	=103
0r	2.f	4d
.	.	4e
.	.	4f
.	4e	4g
.	2d	1a
.	2c	.
=104	=104	=104
0r	2B	2g
.	2A	1cc
.	4G	.
.	4A	.
.	4B	2b
.	4c	.
=105	=105	=105
0r	4d	2a
.	4e	.
.	4f	2a
.	4d	.
.	2e	2g
.	4d	4f
.	4c	4e
=106	=106	=106
1.G	2B	2d
.	1c	2e
.	.	1d
2G	2B	.
=107	=107	=107
2A	2c	2r
2G	2d	1g
[1c	1e	.
.	.	2g
=108	=108	=108
2c]	1d	2a
2B	.	2g
2.A	2r	2.cc
.	[2c	.
4G	.	4b
=109	=109	=109
2F	2c]	2a
2E	2c	2g
2D	2d	2f
2A	2c	2e
=110	=110	=110
2.D	2.f	4d
.	.	4e
.	.	4f
4E	4e	4g
4F	2d	4a
4G	.	4b
2A	2c	4cc
.	.	4a
=111	=111	=111
2G	2d	2b
2A	2c	1a
1E	1B	.
.	.	2g#
=112	=112	=112
2r	1A	2.a
2A	.	.
.	.	8g
.	.	8f
2.c	2r	1e
.	2e	.
4c	.	.
=113	=113	=113
2B	2.g	0r
2G	.	.
.	4g	.
2A	2f	.
2B	2d	.
=114	=114	=114
4c	2e	2r
4B	.	.
4A	2.f	2a
4G	.	.
1A	.	2.cc
.	4e	.
.	4e	.
.	8d	4cc
.	8c	.
=115	=115	=115
2.G	2d	2b
.	1e	2g
4E	.	.
1F	.	2.a
.	2d	.
.	.	4b
=116	=116	=116
1E	0e	2cc
.	.	4b
.	.	4a
2r	.	2g
[2A	.	2a
=117	=117	=117
2A]	2r	1e
2E	1e	.
1G	.	1r
.	2B	.
=118	=118	=118
2D	1d	2r
2.F	.	1a
.	2A	.
4E	.	.
4C	[2c	2e
4D	.	.
=119	=119	=119
4E	4c]	1g
4D	4B	.
4E	4G	.
4F	4A	.
2G	4B	2d
.	4c	.
2F	[2d	[2f
=120	=120	=120
1A	4d]	4f]
.	4c	4e
.	1c	4e
.	.	8d
.	.	8c
1G	.	2d
.	2B	2d
=121	=121	=121
2r	1c	0e
2c	.	.
2A	2r	.
2G	2g	.
=122	=122	=122
2A	2e	0r
2B	2d	.
2c	2e	.
2A	2f	.
=123	=123	=123
2B	4g	2r
.	4f	.
2.c	4e	2cc
.	4d	.
.	4e	2a
4d	4f	.
2B	2d	2g
=124	=124	=124
2A	2e	2a
2G	2.g	2b
1A	.	2cc
.	4f	.
.	2f	2a
=125	=125	=125
0G	1e	2b
.	.	2.cc
.	2d	.
.	.	4b
.	2d	2b
=126	=126	=126
2r	1f	1a
2A	.	.
1c	2e	[1g
.	2c	.
=127	=127	=127
2B	4d	1g]
.	4c	.
2G	4d	.
.	4e	.
4A	4f	1r
4G	4e	.
4A	4c	.
4B	4d	.
=128	=128	=128
4c	4e	0r
4B	4f	.
4G	1g	.
4A	.	.
4B	.	.
4c	.	.
[2d	2f	.
=129	=129	=129
2d]	1e	1r
2c#	.	.
1d	1d	2r
.	.	2a
=130	=130	=130
1G	2r	2b
.	2d	2dd
1r	2e	2cc
.	2g	2b
=131	=131	=131
1r	2f	1cc
.	2e	.
2r	1f	1a
2A	.	.
=132	=132	=132
2B	4d	0r
.	4e	.
2d	4f	.
.	4g	.
2c	2a	.
2B	4g	.
.	4f	.
=133	=133	=133
1c	1e	2r
.	.	2g
1A	2r	2a
.	2c	2cc
=134	=134	=134
0r	2d	2b
.	2f	2a
.	2e	1b
.	2d	.
=135	=135	=135
2r	1e	1g
2G	.	.
2A	4c	1e
.	4d	.
2c	4e	.
.	4f	.
=136	=136	=136
2B	2g	0r
2A	4f	.
.	4e	.
2B	2d	.
[2c	2c	.
=137	=137	=137
4c]	1d	2r
8B	.	.
8A	.	.
2B	.	2d
2c	1r	2e
2G	.	2g
=138	=138	=138
2A	0r	2f
2c	.	2e
2B	.	2g
2A	.	2f
=139	=139	=139
2c	2r	1e
2B	2G	.
1A	2A	1c
.	2c	.
=140	=140	=140
1r	2B	2d
.	2A	2f
2r	2c	2e
2G	2B	2d
=141	=141	=141
2A	1A	2f
2c	.	2e
2B	1r	2d
2A	.	4c
.	.	4d
=142	=142	=142
2c	1r	4e
.	.	4f
2B	.	2g
1A	1c	2a
.	.	2cc
=143	=143	=143
2r	2d	2b
2F	2f	2a
2G	2e	4b
.	.	4cc
2B-	2d	[2dd
=144	=144	=144
2A	2e	4dd]
.	.	4cc
2A	4d	1cc
.	4c	.
1G	1d	.
.	.	2b
=145	=145	=145
2r	1c	0cc
1c	.	.
.	2r	.
2F	[2f	.
=146	=146	=146
1A	2f]	2r
.	2c	1cc
1E	1e	.
.	.	2g
=147	=147	=147
2r	1.A	1a
1c	.	.
.	.	1e
2G	2B	.
=148	=148	=148
1A	2c	2r
.	2A	1cc
2A	1e	.
2E	.	2g
=149	=149	=149
2F	2A	1a
2D	1f	.
1A	.	2a
.	2c	2e
=150	=150	=150
2.D	1d	2f
.	.	2d
4E	.	.
2.F	2d	1a
.	2A	.
4G	.	.
=151	=151	=151
1A	2c	2e
.	2A	2.cc
2r	[1e	.
.	.	4b
[2c	.	2g
=152	=152	=152
2c]	2e]	2a
2G	2d	2.b
1A	2.c	.
.	.	4a
.	.	[2a
.	8B	.
.	8A	.
=153	=153	=153
2E	1B	2a]
2E	.	2g#
2F	2A	2.a
2D	2d	.
.	.	4g
=154	=154	=154
1A	2d	2f
.	2c#	2e
1D	1d	1f
=155	=155	=155
0A	0c#	0e
*-	*-	*-
!!!CDT: 1525/^1526/-1594/2/2
!!!OCY: Italia
!!!AGN: Mass (Paraphrase)
!!!AST: renaissance, vocal
!!!ASW: Hymn
!!!PWK: Masses, Book 7
!!!RNB: Cadence finals: A,C
!!!YOR: Le Opere Complete, v. 23, p. 30
!!!YOO: Rome, Italy: Fratelli Scalera
!!!END: 1992//
!!!EED: John Miller
!!!YEC: Copyright 2000, John Miller
!!!YEN: United States of America
!!!YEM: Rights to all derivative electronic formats reserved.
!!!YEM: Refer to licensing agreement for further details.
!!!YEM: This file must be accompanied by the licensing agreement.
!!!YEM: A copy of the licensing agreement may be found at http://www.music-cog.ohio-state.edu/HumdrumDatabases/Palestrina/license.txt
!!!EMD: converted to Humdrum by Bret Aarden
